src/Assets/Frame 1707479953.svg

<svg width="81" height="76" viewBox="0 0 81 76" fill="none" xmlns="http://www.w3.org/2000/svg">
<mask id="path-1-inside-1_3268_23628" fill="white">
<path d="M0 15.2113C0 6.8103 6.81032 0 15.2113 0H65.7887C74.1897 0 81 6.81032 81 15.2113V60.0845C81 68.4855 74.1897 75.2958 65.7887 75.2958H15.2113C6.81031 75.2958 0 68.4855 0 60.0845V15.2113Z"/>
</mask>
<path d="M0 15.2113C0 6.8103 6.81032 0 15.2113 0H65.7887C74.1897 0 81 6.81032 81 15.2113V60.0845C81 68.4855 74.1897 75.2958 65.7887 75.2958H15.2113C6.81031 75.2958 0 68.4855 0 60.0845V15.2113Z" fill="white"/>
<path d="M15.2113 0.5H65.7887V-0.5H15.2113V0.5ZM80.5 15.2113V60.0845H81.5V15.2113H80.5ZM65.7887 74.7958H15.2113V75.7958H65.7887V74.7958ZM0.5 60.0845V15.2113H-0.5V60.0845H0.5ZM15.2113 74.7958C7.08646 74.7958 0.5 68.2093 0.5 60.0845H-0.5C-0.5 68.7616 6.53417 75.7958 15.2113 75.7958V74.7958ZM80.5 60.0845C80.5 68.2093 73.9135 74.7958 65.7887 74.7958V75.7958C74.4658 75.7958 81.5 68.7616 81.5 60.0845H80.5ZM65.7887 0.5C73.9135 0.5 80.5 7.08646 80.5 15.2113H81.5C81.5 6.53417 74.4658 -0.5 65.7887 -0.5V0.5ZM15.2113 -0.5C6.53417 -0.5 -0.5 6.53416 -0.5 15.2113H0.5C0.5 7.08644 7.08646 0.5 15.2113 0.5V-0.5Z" fill="#2F32DE" mask="url(#path-1-inside-1_3268_23628)"/>
<g filter="url(#filter0_i_3268_23628)">
<path d="M36.3487 56.5707C29.1666 51.1098 30.1873 42.9778 30.2348 42.5029L43.3529 48.1419C43.3529 48.1419 47.8046 50.6349 49.5854 52.0002C51.3661 53.3654 53.3843 56.2739 53.3843 56.2739C53.3843 56.2739 43.5309 62.0316 36.3487 56.5707Z" fill="url(#paint0_linear_3268_23628)"/>
</g>
<path d="M57.4801 58.1736C57.025 60.1126 56.103 64.0381 56.0555 64.2281C56.0555 64.2281 54.6309 59.7169 53.8592 58.1736C53.0876 56.6303 51.5443 54.3153 48.3983 51.7629C45.2524 49.2106 35.6364 45.1742 35.6364 45.1742L30.2349 42.5625L39.3166 42.6219C39.3166 42.6219 49.348 47.1924 50.832 48.1421C52.3159 49.0918 53.8592 50.6945 54.809 52.3565C55.7587 54.0185 57.4801 58.1736 57.4801 58.1736Z" fill="url(#paint1_linear_3268_23628)"/>
<path d="M56.8862 45.9455C56.9455 43.3931 56.53 41.4343 56.53 40.5439C56.53 39.6536 56.2926 37.8135 56.2926 37.8135L57.361 39.7129C57.361 39.7129 59.3792 43.3337 59.7947 45.2925C60.2102 47.2514 60.1508 48.4385 59.7947 50.5754C59.4385 52.7123 58.3107 55.6801 58.3107 55.6801C58.3107 55.6801 57.8359 54.0181 57.1829 52.7716C56.53 51.5251 55.6396 50.3973 55.6396 50.3973C55.6396 50.3973 56.8268 48.4979 56.8862 45.9455Z" fill="url(#paint2_linear_3268_23628)"/>
<path d="M29.3443 40.2471C28.0187 39.3369 24.7144 37.2199 24.5957 37.1011C24.477 36.9824 46.2613 36.9824 46.2613 36.9824C46.2613 36.9824 46.6768 37.1011 47.8046 37.8134C48.9324 38.5257 50.1195 38.5257 50.1195 38.5257V45.708C50.1195 45.708 49.2885 45.1144 48.6949 44.7583C48.1014 44.4021 47.3891 43.215 47.1516 42.7401C46.9142 42.2653 46.4987 40.2471 46.4987 40.2471H29.3443Z" fill="url(#paint3_linear_3268_23628)"/>
<path d="M51.1286 10.3311L42.4624 10.5685C42.4624 10.5685 45.1335 11.9931 46.6174 13.8925C48.1014 15.792 48.9324 17.5133 48.9324 17.5133H53.7404L51.1286 10.3311Z" fill="url(#paint4_linear_3268_23628)"/>
<path d="M34.6862 14.1894C31.7183 13.7739 29.5814 13.952 29.5814 13.952L27.9194 17.8102H40.3252C40.3252 17.8102 37.6541 14.6049 34.6862 14.1894Z" fill="url(#paint5_linear_3268_23628)"/>
<path d="M25.3672 23.5086L26.8099 20.1846L42.5216 20.1846C42.5216 20.1846 42.0467 20.7781 41.6312 21.5498C41.2157 22.3214 40.9189 23.5086 40.9189 23.5086H25.3672Z" fill="url(#paint6_linear_3268_23628)"/>
<path d="M22.815 29.1475L24.2396 25.8234L24.3583 25.4673L40.4442 25.6454L40.1474 27.1293L40.4442 29.1475H22.815Z" fill="url(#paint7_linear_3268_23628)"/>
<path d="M21.8059 31.2843L20.9155 33.4212L22.6369 34.8458L43.3527 34.6677C43.3527 34.6677 42.5811 34.1335 42.2843 33.4212L41.3939 31.2843H21.8059Z" fill="url(#paint8_linear_3268_23628)"/>
<path d="M33.0839 10.7466C32.7278 10.7466 31.8374 11.1621 31.8374 11.1621C31.8374 11.1621 35.755 11.3402 39.6133 14.1893C43.4715 17.0385 43.7683 19.4128 43.7683 19.4128C43.7683 19.4128 44.4806 18.8192 45.1335 18.4631C45.7865 18.1069 46.4988 17.6914 46.4988 17.6914C46.4988 17.6914 44.5993 14.961 43.5309 13.8925C42.4624 12.8241 39.3758 10.7466 39.3758 10.7466H33.0839Z" fill="url(#paint9_linear_3268_23628)"/>
<rect x="52.4937" y="39.0601" width="2.37431" height="1.78073" fill="#DDB02B"/>
<rect x="52.4937" y="41.0781" width="2.37431" height="1.78073" fill="#DDB02B"/>
<rect x="52.4937" y="43.0962" width="2.37431" height="1.78073" fill="#DDB02B"/>
<path d="M52.4937 45.1143H54.8086V48.4976C54.8086 48.4976 53.9776 47.9634 53.3247 47.6073C52.6717 47.2511 52.4937 47.4292 52.4937 47.4292V45.1143Z" fill="#DDB02B"/>
<g filter="url(#filter1_d_3268_23628)">
<path d="M27.0886 41.6127L23.171 39.001C23.171 39.001 20.0843 52.4158 30.9468 60.7259C41.8094 69.036 53.0872 62.566 53.0872 62.566L51.8407 59.1826C51.8407 59.1826 43.7088 64.9583 34.0335 57.1644C24.3582 49.3705 27.0886 41.6127 27.0886 41.6127Z" fill="url(#paint10_linear_3268_23628)"/>
</g>
<path d="M54.5711 19.7096L59.3199 29.3849C59.3199 29.3849 56.8862 29.9191 56.4706 30.0378C56.0549 30.1566 56.8267 31.5811 56.7081 32.056C56.5896 32.5309 54.9866 32.5309 54.9866 32.5309C54.9866 32.5309 54.9274 33.1244 55.5804 33.3619C56.2333 33.5993 56.4706 33.4806 56.4706 33.4806V34.6678C56.4706 34.9052 57.064 35.6175 57.0048 35.9143C56.9456 36.2111 56.2679 37.161 54.5731 36.9966C54.561 36.9954 54.5488 36.9942 54.5366 36.9929L51.5437 36.6859C51.5437 36.6859 48.932 36.2111 48.0416 35.6175C47.1511 35.0239 46.3204 34.4303 45.0737 33.2432C43.8271 32.056 40.8596 25.7047 43.8274 22.1433C46.7951 18.5818 54.5711 19.7096 54.5711 19.7096Z" fill="url(#paint11_linear_3268_23628)"/>
<path d="M51.2472 21.7869C51.0691 21.8463 46.3799 24.3393 46.3799 24.3393C46.3799 24.3393 46.736 24.6361 47.3296 24.7548C47.9232 24.8735 49.5258 24.6954 50.1194 24.8735C50.713 25.0516 51.9002 25.7639 52.375 25.7045C52.8499 25.6452 54.5119 25.4077 54.5119 25.4077V23.2115C54.5119 23.2115 54.2745 22.4398 53.4435 22.0243C52.6124 21.6088 51.4253 21.7276 51.2472 21.7869Z" fill="url(#paint12_linear_3268_23628)" stroke="white" stroke-width="0.237431"/>
<circle cx="51.9598" cy="23.6863" r="0.949723" stroke="white" stroke-width="0.118715"/>
<circle cx="51.9596" cy="23.6866" r="0.593577" fill="white" stroke="white" stroke-width="0.118715"/>
<defs>
<filter id="filter0_i_3268_23628" x="28.5803" y="42.5029" width="24.804" height="16.8953" filterUnits="userSpaceOnUse" color-interpolation-filters="sRGB">
<feFlood flood-opacity="0" result="BackgroundImageFix"/>
<feBlend mode="normal" in="SourceGraphic" in2="BackgroundImageFix" result="shape"/>
<feColorMatrix in="SourceAlpha" type="matrix" values="0 0 0 0 0 0 0 0 0 0 0 0 0 0 0 0 0 0 127 0" result="hardAlpha"/>
<feOffset dx="-1.89945" dy="0.474862"/>
<feGaussianBlur stdDeviation="0.789457"/>
<feComposite in2="hardAlpha" operator="arithmetic" k2="-1" k3="1"/>
<feColorMatrix type="matrix" values="0 0 0 0 0.176649 0 0 0 0 0.183214 0 0 0 0 0.229167 0 0 0 0.17 0"/>
<feBlend mode="normal" in2="shape" result="effect1_innerShadow_3268_23628"/>
</filter>
<filter id="filter1_d_3268_23628" x="21.2445" y="39.001" width="33.364" height="29.0066" filterUnits="userSpaceOnUse" color-interpolation-filters="sRGB">
<feFlood flood-opacity="0" result="BackgroundImageFix"/>
<feColorMatrix in="SourceAlpha" type="matrix" values="0 0 0 0 0 0 0 0 0 0 0 0 0 0 0 0 0 0 127 0" result="hardAlpha"/>
<feOffset dy="1.52113"/>
<feGaussianBlur stdDeviation="0.760563"/>
<feComposite in2="hardAlpha" operator="out"/>
<feColorMatrix type="matrix" values="0 0 0 0 0 0 0 0 0 0 0 0 0 0 0 0 0 0 0.25 0"/>
<feBlend mode="normal" in2="BackgroundImageFix" result="effect1_dropShadow_3268_23628"/>
<feBlend mode="normal" in="SourceGraphic" in2="effect1_dropShadow_3268_23628" result="shape"/>
</filter>
<linearGradient id="paint0_linear_3268_23628" x1="41.7717" y1="42.5029" x2="41.7717" y2="58.9232" gradientUnits="userSpaceOnUse">
<stop stop-color="#DEC42F"/>
<stop offset="1" stop-color="#D97220"/>
</linearGradient>
<linearGradient id="paint1_linear_3268_23628" x1="43.8575" y1="42.5625" x2="43.8575" y2="64.2281" gradientUnits="userSpaceOnUse">
<stop stop-color="#DEC42F"/>
<stop offset="1" stop-color="#D97220"/>
</linearGradient>
<linearGradient id="paint2_linear_3268_23628" x1="57.8621" y1="37.8135" x2="68.0809" y2="38.6346" gradientUnits="userSpaceOnUse">
<stop stop-color="#2F32DE"/>
<stop offset="1" stop-color="white"/>
</linearGradient>
<linearGradient id="paint3_linear_3268_23628" x1="-4.78639" y1="50.2785" x2="53.0151" y2="56.5329" gradientUnits="userSpaceOnUse">
<stop stop-color="white"/>
<stop offset="0.824088" stop-color="#2F32DE"/>
</linearGradient>
<linearGradient id="paint4_linear_3268_23628" x1="48.1014" y1="10.3311" x2="48.1014" y2="17.5133" gradientUnits="userSpaceOnUse">
<stop stop-color="#DEC42F"/>
<stop offset="1" stop-color="#D97220"/>
</linearGradient>
<linearGradient id="paint5_linear_3268_23628" x1="34.1223" y1="13.9141" x2="48.0722" y2="28.2612" gradientUnits="userSpaceOnUse">
<stop stop-color="#2F32DE"/>
<stop offset="1" stop-color="white"/>
</linearGradient>
<linearGradient id="paint6_linear_3268_23628" x1="33.9444" y1="20.1846" x2="44.449" y2="37.695" gradientUnits="userSpaceOnUse">
<stop stop-color="#2F32DE"/>
<stop offset="1" stop-color="white"/>
</linearGradient>
<linearGradient id="paint7_linear_3268_23628" x1="32.1341" y1="25.4673" x2="64.6402" y2="50.5865" gradientUnits="userSpaceOnUse">
<stop stop-color="#2F32DE"/>
<stop offset="1" stop-color="white"/>
</linearGradient>
<linearGradient id="paint8_linear_3268_23628" x1="32.1341" y1="25.4673" x2="64.6402" y2="50.5865" gradientUnits="userSpaceOnUse">
<stop stop-color="#2F32DE"/>
<stop offset="1" stop-color="white"/>
</linearGradient>
<linearGradient id="paint9_linear_3268_23628" x1="39.1681" y1="10.7466" x2="39.1681" y2="19.4128" gradientUnits="userSpaceOnUse">
<stop stop-color="#DEC42F"/>
<stop offset="1" stop-color="#D97220"/>
</linearGradient>
<linearGradient id="paint10_linear_3268_23628" x1="11.2185" y1="31.3734" x2="56.472" y2="66.1692" gradientUnits="userSpaceOnUse">
<stop offset="0.0431802" stop-color="white"/>
<stop offset="0.465" stop-color="#2F32DE"/>
</linearGradient>
<linearGradient id="paint11_linear_3268_23628" x1="50.9351" y1="19.54" x2="86.3369" y2="30.513" gradientUnits="userSpaceOnUse">
<stop stop-color="#2F32DE"/>
<stop offset="1" stop-color="white"/>
</linearGradient>
<linearGradient id="paint12_linear_3268_23628" x1="50.4459" y1="21.7246" x2="63.5602" y2="30.3722" gradientUnits="userSpaceOnUse">
<stop stop-color="#2F32DE"/>
<stop offset="1" stop-color="white"/>
</linearGradient>
</defs>
</svg>

<svg xmlns="http://www.w3.org/2000/svg" width="81" height="76" fill="none"><mask id="a" fill="#fff"><path d="M0 15.211C0 6.811 6.81 0 15.211 0H65.79C74.189 0 81 6.81 81 15.211v44.873c0 8.401-6.81 15.212-15.211 15.212H15.21C6.811 75.296 0 68.486 0 60.084z"/></mask><path fill="#fff" d="M0 15.211C0 6.811 6.81 0 15.211 0H65.79C74.189 0 81 6.81 81 15.211v44.873c0 8.401-6.81 15.212-15.211 15.212H15.21C6.811 75.296 0 68.486 0 60.084z"/><path fill="#2F32DE" d="M15.211.5H65.79v-1H15.21zM80.5 15.211v44.873h1V15.212zM65.789 74.796H15.21v1H65.79zM.5 60.084V15.212h-1v44.874zm14.711 14.712C7.086 74.796.5 68.209.5 60.084h-1c0 8.678 7.034 15.712 15.711 15.712zM80.5 60.084c0 8.125-6.587 14.712-14.711 14.712v1c8.677 0 15.711-7.034 15.711-15.712zM65.789.5C73.913.5 80.5 7.086 80.5 15.211h1C81.5 6.534 74.466-.5 65.789-.5zM15.21-.5C6.534-.5-.5 6.534-.5 15.211h1C.5 7.086 7.086.5 15.211.5z" mask="url(#a)"/><g filter="url(#b)"><path fill="url(#c)" d="M36.349 56.57c-7.182-5.46-6.162-13.592-6.114-14.067l13.118 5.639s4.452 2.493 6.232 3.858 3.8 4.274 3.8 4.274-9.854 5.758-17.036.297"/></g><path fill="url(#d)" d="M57.48 58.174c-.455 1.939-1.377 5.864-1.424 6.054 0 0-1.425-4.511-2.197-6.054-.771-1.544-2.315-3.859-5.46-6.411-3.147-2.552-12.763-6.589-12.763-6.589l-5.401-2.611 9.082.059s10.031 4.57 11.515 5.52 3.027 2.552 3.977 4.214 2.671 5.818 2.671 5.818"/><path fill="url(#e)" d="M56.886 45.946c.06-2.553-.356-4.512-.356-5.402s-.237-2.73-.237-2.73l1.068 1.899s2.018 3.62 2.434 5.58c.415 1.958.356 3.145 0 5.282-.357 2.137-1.484 5.105-1.484 5.105s-.475-1.662-1.128-2.908c-.653-1.247-1.543-2.375-1.543-2.375s1.187-1.9 1.246-4.451"/><path fill="url(#f)" d="M29.344 40.247c-1.325-.91-4.63-3.027-4.748-3.146s21.665-.119 21.665-.119.416.12 1.544.831a4.8 4.8 0 0 0 2.315.713v7.182s-.831-.594-1.425-.95-1.306-1.543-1.543-2.018c-.238-.475-.653-2.493-.653-2.493z"/><path fill="url(#g)" d="m51.129 10.331-8.667.238s2.671 1.424 4.155 3.323 2.315 3.621 2.315 3.621h4.808z"/><path fill="url(#h)" d="M34.686 14.19c-2.968-.416-5.105-.238-5.105-.238L27.92 17.81h12.406s-2.67-3.205-5.639-3.62"/><path fill="url(#i)" d="m25.367 23.509 1.443-3.324h15.712s-.475.593-.89 1.365c-.416.771-.713 1.959-.713 1.959z"/><path fill="url(#j)" d="m22.815 29.148 1.425-3.325.118-.356 16.086.178-.297 1.484.297 2.018z"/><path fill="url(#k)" d="m21.806 31.284-.89 2.137 1.72 1.425 20.717-.178s-.772-.535-1.069-1.247l-.89-2.137z"/><path fill="url(#l)" d="M33.084 10.747c-.356 0-1.247.415-1.247.415s3.918.178 7.776 3.027 4.155 5.224 4.155 5.224.713-.594 1.365-.95a64 64 0 0 0 1.366-.772s-1.9-2.73-2.968-3.798-4.155-3.146-4.155-3.146z"/><path fill="#DDB02B" d="M52.494 39.06h2.374v1.781h-2.374zM52.494 41.078h2.374v1.781h-2.374zM52.494 43.096h2.374v1.781h-2.374zM52.494 45.114h2.315v3.384s-.831-.535-1.484-.89c-.653-.357-.831-.179-.831-.179z"/><g filter="url(#m)"><path fill="url(#n)" d="M27.089 41.613 23.17 39s-3.087 13.415 7.776 21.725 22.14 1.84 22.14 1.84l-1.246-3.383s-8.132 5.775-17.808-2.019-6.944-15.551-6.944-15.551"/></g><path fill="url(#o)" d="m54.571 19.71 4.749 9.675s-2.434.534-2.85.653.357 1.543.238 2.018c-.118.475-1.721.475-1.721.475s-.06.593.593.83c.653.238.89.12.89.12v1.187c0 .237.594.95.535 1.246-.06.297-.737 1.247-2.432 1.083l-.036-.004-2.993-.307s-2.612-.475-3.502-1.069c-.89-.593-1.722-1.187-2.968-2.374-1.247-1.187-4.214-7.538-1.247-11.1s10.744-2.433 10.744-2.433"/><path fill="url(#p)" stroke="#fff" stroke-width=".237" d="M51.247 21.787c-.178.06-4.867 2.552-4.867 2.552s.356.297.95.416c.593.119 2.196-.06 2.79.119.593.178 1.78.89 2.255.83.475-.059 2.137-.296 2.137-.296V23.21s-.237-.771-1.069-1.187c-.83-.415-2.018-.296-2.196-.237Z"/><circle cx="51.96" cy="23.686" r=".95" stroke="#fff" stroke-width=".119"/><circle cx="51.96" cy="23.687" r=".594" fill="#fff" stroke="#fff" stroke-width=".119"/><defs><linearGradient id="c" x1="41.772" x2="41.772" y1="42.503" y2="58.923" gradientUnits="userSpaceOnUse"><stop stop-color="#DEC42F"/><stop offset="1" stop-color="#D97220"/></linearGradient><linearGradient id="d" x1="43.858" x2="43.858" y1="42.563" y2="64.228" gradientUnits="userSpaceOnUse"><stop stop-color="#DEC42F"/><stop offset="1" stop-color="#D97220"/></linearGradient><linearGradient id="e" x1="57.862" x2="68.081" y1="37.813" y2="38.635" gradientUnits="userSpaceOnUse"><stop stop-color="#2F32DE"/><stop offset="1" stop-color="#fff"/></linearGradient><linearGradient id="f" x1="-4.786" x2="53.015" y1="50.279" y2="56.533" gradientUnits="userSpaceOnUse"><stop stop-color="#fff"/><stop offset=".824" stop-color="#2F32DE"/></linearGradient><linearGradient id="g" x1="48.101" x2="48.101" y1="10.331" y2="17.513" gradientUnits="userSpaceOnUse"><stop stop-color="#DEC42F"/><stop offset="1" stop-color="#D97220"/></linearGradient><linearGradient id="h" x1="34.122" x2="48.072" y1="13.914" y2="28.261" gradientUnits="userSpaceOnUse"><stop stop-color="#2F32DE"/><stop offset="1" stop-color="#fff"/></linearGradient><linearGradient id="i" x1="33.944" x2="44.449" y1="20.185" y2="37.695" gradientUnits="userSpaceOnUse"><stop stop-color="#2F32DE"/><stop offset="1" stop-color="#fff"/></linearGradient><linearGradient id="j" x1="32.134" x2="64.64" y1="25.467" y2="50.587" gradientUnits="userSpaceOnUse"><stop stop-color="#2F32DE"/><stop offset="1" stop-color="#fff"/></linearGradient><linearGradient id="k" x1="32.134" x2="64.64" y1="25.467" y2="50.587" gradientUnits="userSpaceOnUse"><stop stop-color="#2F32DE"/><stop offset="1" stop-color="#fff"/></linearGradient><linearGradient id="l" x1="39.168" x2="39.168" y1="10.747" y2="19.413" gradientUnits="userSpaceOnUse"><stop stop-color="#DEC42F"/><stop offset="1" stop-color="#D97220"/></linearGradient><linearGradient id="n" x1="11.219" x2="56.472" y1="31.373" y2="66.169" gradientUnits="userSpaceOnUse"><stop offset=".043" stop-color="#fff"/><stop offset=".465" stop-color="#2F32DE"/></linearGradient><linearGradient id="o" x1="50.935" x2="86.337" y1="19.54" y2="30.513" gradientUnits="userSpaceOnUse"><stop stop-color="#2F32DE"/><stop offset="1" stop-color="#fff"/></linearGradient><linearGradient id="p" x1="50.446" x2="63.56" y1="21.725" y2="30.372" gradientUnits="userSpaceOnUse"><stop stop-color="#2F32DE"/><stop offset="1" stop-color="#fff"/></linearGradient><filter id="b" width="24.804" height="16.895" x="28.58" y="42.503" color-interpolation-filters="sRGB" filterUnits="userSpaceOnUse"><feFlood flood-opacity="0" result="BackgroundImageFix"/><feBlend in="SourceGraphic" in2="BackgroundImageFix" result="shape"/><feColorMatrix in="SourceAlpha" result="hardAlpha" values="0 0 0 0 0 0 0 0 0 0 0 0 0 0 0 0 0 0 127 0"/><feOffset dx="-1.899" dy=".475"/><feGaussianBlur stdDeviation=".789"/><feComposite in2="hardAlpha" k2="-1" k3="1" operator="arithmetic"/><feColorMatrix values="0 0 0 0 0.176649 0 0 0 0 0.183214 0 0 0 0 0.229167 0 0 0 0.17 0"/><feBlend in2="shape" result="effect1_innerShadow_3268_23628"/></filter><filter id="m" width="33.364" height="29.007" x="21.244" y="39.001" color-interpolation-filters="sRGB" filterUnits="userSpaceOnUse"><feFlood flood-opacity="0" result="BackgroundImageFix"/><feColorMatrix in="SourceAlpha" result="hardAlpha" values="0 0 0 0 0 0 0 0 0 0 0 0 0 0 0 0 0 0 127 0"/><feOffset dy="1.521"/><feGaussianBlur stdDeviation=".761"/><feComposite in2="hardAlpha" operator="out"/><feColorMatrix values="0 0 0 0 0 0 0 0 0 0 0 0 0 0 0 0 0 0 0.25 0"/><feBlend in2="BackgroundImageFix" result="effect1_dropShadow_3268_23628"/><feBlend in="SourceGraphic" in2="effect1_dropShadow_3268_23628" result="shape"/></filter></defs></svg>
